X: 20471
T: HOW BLEST THE MAID
Q: "Andantino"
%R: jig
B: "Edinburgh Repository of Music" v.2 p.47
F: http://digital.nls.uk/special-collections-of-printed-music/pageturner.cfm?id=87776133
Z: 2015 John Chambers <jc:trillian.mit.edu>
M: 6/8
L: 1/8
K: D
A |\
A>FG A2B | A2d A2A | B2d (d>e)c | d3 z2A |\
(A>FG) A2B | A2d A2A | B2d d>(ec) | d2d (f>ed) |
(c>BA) B2(B//c//d/) | c2A (f>ed) | (c>BA) B2 (B//c//d/) | c2z z2A |\
(AB)B zBc | (cd) d z2e | f2f (g>f)e | d3- d2d |
a2d (fe)d | c3- c2c | a2A (fed) | c2z z2A |\
A>FG A2B | A2d A2A | B2d (d>e)c | d3 z2A |\
A>FG A2B | A2d A2A |
B2d (d>ec) | d2(f//g//a/) =c2c |\
(Bgf) (ed^c) | d2 (f//g//a/) =c2c | (Bgf) ed^c |d2f gfe |\
d2(a/f/) (gfe) | d3- d2 |]

%%sep 2 1 500
%%sep 1 1 500

